X: 4465
T: Bonnie Lass O' Bon Accord, The
R: strathspey
M: 4/4
K: Aminor
E|A>Bc>B AA,CE|A/^G/A/B/ c/A/d/c/ B3 E|A>B {A/B/}c>B ACDF|{E/F/}E/D/E/F/ E/D/C/B,/ A,3 E|
A>B {A/B/}c>B AA,CE|A/^G/A/B/ c/A/d/c/ B3 E|A>B {A/B/}c>B Ac df|e/d/e/f/ e^G A3||
{e/^f/^g/}a>=gfe fedc|c/B/A/B/ c/A/d/c/ B3 (3e/^f/^g/|a>gfe d/c/B/c/ d/e/f/d/|e/d/e/f/ e^G A3|
{e/^f/^g/}a>=gfe fedc|c/B/A/B/ c/A/d/c/ B3 c|,A/C/E/A/ c>B ACDF|{E/F/}E/D/E/F/ EG, A,3||

